X:202
T:Michael Turner's Jig
R:jig 32
M:6/8
L:1/8
Q:1/4=140
K:G
|:G2G GFG|A2B c2d|e2e dBG|GFG AFD|
G2G GFG|A2B c2d|e2e dBG|AGF G3:|
|:A2A A2B|c2d B2d|g2d g2d|BAG d3|
A2A A2B|c2d B2d|g2d g2d|ded cBA:|]

